X:1
T:Once Upon a Time in the West
T:for Flute and Cello
T:Ennio Morricone
%%score 1 2 { ( 3 5 ) | ( 4 6 ) }
L:1/8
M:3/4
K:D
V:1 treble nm="Flute" snm="Fl."
V:2 bass nm="Cello" snm="Vc."
V:3 treble nm="Piano" snm="Pno."
V:5 treble 
V:4 bass 
V:6 bass 
V:1
 z6 | z6 | z6 | z6 | z6 | z6 | z6 | z6 | z6 | z6 | z6 | z6 | z6 | z6 | z6 | z6 | z6 | z6 | z6 | %19
 z6 | z6 | z6 | z6 | z6 | z6 | z6 | z6 | z6 | z6 | z6 | z6 | z6 | z6 | z6 | F6- | F6- | F6- | %37
 F4 G2 | F2 E2 D2- | D6- | D6- | D4 D2- | D4 B2- | B4 g2- | g6- | g6 | f2 e2 f2- | f6- | f6- | %49
 f2 e4- | e6 | d6- | d4 c2 | d4 B2 | A6- | A6- | A4 A2- | A2 B4 | g6 | e6- | e2 d2 f2- | f6- | %62
 f4 A2- | A2 B4 | g4 e2- | e6- | e2 d2 d2- | d6- | d6 | z6 | z6 | z6 | z6 | z6 | z6 | z6 | z6 | %77
 z6 | z6 | z6 | z6 | z6 | z6 | z6 | z6 | z6 | z6 | A4 f2- | f6- | f6- | f4 g2 | f2 e2 d2- | d6- | %93
 d6- | d4 d2- | d4 b2- | b4 g'2- | g'6- | g'6 | f'2 e'2 f'2- | f'6- | f'6- | f'2 e'4- | e'6 | %104
 d'6- | d'4 c'2 | d'4 b2 | a6- | a6- | a4 a2- | a2 b4 | g'6 | e'6- | e'2 d'2 f'2- | f'6- | %115
 f'4 a2- | a2 b4 | g'4 e'2- | e'6- | e'2 d'2 d'2- | d'6- | d'6 ||[K:Eb] z6 | z4 z2 | B6 | g6- | %126
 g4 a2 | g2 f2 e2- | e6- | e4 e2- | e2 c'4 | a'6- | a'2 g'2 f'2 | g'6- | g'6 | f'4 f'2- | %136
 f'2 e'4- | e'2 d'2 e'2 | c'2 b4- | b6 | b2- b2 c'2- | c'4 a'2- | a'2 f'4- | f'2 e'2 g'2- | g'6- | %145
 g'4 z2 | b2 c'4 | a'4 f'2- | f'4 e'2 | e'6- | e'6- | e'6- | e'6- | e'6- | e'6- | e'2 z4 | z6 | %157
 z6 | z6 | z6 |] %160
V:2
 z6 | z6 | z6 | z6 | z6 | z6 | z6 | z6 | z6 | z6 | z6 | z6 | z6 | z6 | z6 | z6 | z6 | z6 | z6 | %19
 z6 | D,6 | F,6- | [F,A,]6- | [F,A,-]4 [A,C]2 | [G,B,]6- | [G,B,]6- | [G,B,]6 | z6 | z6 | z6 | z6 | %31
 z2 D,4- | D,6- | D,6- | D,2 z2 z2 | D,6 | D,4 C,2- | C,6- | C,4 B,,2- | B,,6- | B,,4 A,,2- | %41
 A,,6- | A,,4 G,,2- | G,,6- | G,,6- | G,,6 | z4 D,2- | D,6- | D,4 z2 | z6 | B,,6- | B,,6 | z6 | %53
 z6 | F,,6- | F,,6- | F,,6- | F,,2 G,,4- | G,,4 A,,2- | A,,6- | A,,4 D,2- | D,6- | D,6- | %63
 D,2 G,,4- | G,,4 A,,2- | A,,6- | A,,4 D,2- | D,6- | D,6 | B,,6- | B,,6- | B,,4 B,,2- | B,,6- | %73
 B,,6 | B,,2 ^A,,4- | A,,2 ^A,,2 A,,2- | A,,4 ^A,,2 | A,,6- | A,,6- | A,,4 G,,2- | G,,6- | G,,6- | %82
 G,,2 A,,4- | A,,6- | A,,6- | A,,4 z2 | z6 | z4 D,2- | D,6- | D,4 C,2- | C,6- | C,4 B,,2- | B,,6- | %93
 B,,4 A,,2- | A,,6- | A,,4 G,,2- | G,,6- | G,,6- | G,,6 | z2 z2 D,2- | D,6- | D,4 z2 | z6 | B,,6- | %104
 B,,6 | z6 | z6 | F,,6- | F,,6- | F,,6- | F,,2 G,,4- | G,,4 A,,2- | A,,6- | A,,4 D,2- | D,6- | %115
 D,6- | D,2 G,,4- | G,,4 A,,2- | A,,6- | A,,4 D,2- | D,6- | D,6 ||[K:Eb] z2 B,,4- | B,,6- | B,,6 | %125
 E,6- | E,2 D,4- | D,4 C,2- | C,6 | B,,6- | B,,2 A,,4- | A,,6- | A,,6 | E,6- | E,6- | E,4 C,2- | %136
 C,6- | C,6 | C,2 G,,4- | G,,6- | G,,6 | A,,6 | G,,2 B,,4- | B,,4 E,2- | E,6 | z6 | z2 A,4- | %147
 A,4 B,,2- | B,,6 | E,6- | E,6- | E,4 A,2- | A,6- | A,6- | A,6- | A,2 E,4- | E,6- | E,6- | E,6- | %159
 E,2 z2 z2 |] %160
V:3
 z6 | z6 | z6 | z6 | [df]4 [ce]2 | [ce]4 [Bd]2 | [Bd]4 [Ac]2 | [ce]4 [Bd]2 | [Bd]4 [Ac]2 | z2 B4- | %10
 B6 | [gb]4 [fa]2 | [fa]4 [eg]2 | [eg]4 [df]2 | [fa]4 [eg]2 | [eg]4 .[df]2 | [df]6- | [df]6 | z6 | %19
 [df]4 [ce]2 | [ce]4 [Bd]2 | [Bd]4 [Ac]2 | [ce]4 [Bd]2 | [Bd]4 [Ac]2 | B6- | B6 | [gb]4 [fa]2 | %27
 [fa]4 [eg]2 | [eg]4 [df]2 | [fa]4 [eg]2 | [eg]4 [df]2 | [df]6- | [df]6- | [df]6- | [df]4 z2 | %35
 [A,D]6 | F2 D2 F2 | D2 A,2 D2 | F2 D2 B,2 | D2 F2 D2 | F2 D2 B,2 | =C2 F2 C2 | F2 =C2 G2 | %43
 D2 B,2 D2 | G2 D2 G2 | D2 G2 D2 | G2 D2 F2 | D2 A,2 D2 | A,2 D2 F2 | D2 F2 D2 | B,2 D2 F2 | %51
 D2 F2 D2 | F2 D2 F2 | D2 F2 D2 | C2 F2 C2 | F2 A2 F2 | C2 F2 C2 | F2 G2 D2 | B,2 D2 A2 | %59
 E2 A2 E2 | A2 E2 A,2 | C2 F2 C2 | =C2 F2 C2 | F2 D2 G2 | D2 B,2 A2 | E2 A2 E2 | A2 E2 z2 | z6 | %68
 z6 | F2 B2 B2 | F2 F2 z2 | z2 D2 F2 | c2 c2 B2 | F6 | F2 G2 d2 | d2 G2 ^g2 | d2 d2 ^G2 | %77
 [A,DFA]6 | z2 [df]4- | [df]2 [Bd]2 [Bd]2 | [Ac]6 | [Ac]4 [GB]2 | B6- | [GB]2 [FA]4- | %84
 [FA]4 [FA]2- | [FA]6 | z6 | z4 A,2 | D2 F2 D2 | F2 D2 F2 | D2 A,2 D2 | F2 D2 B,2 | D2 F2 D2 | %93
 F2 D2 B,2 | =C2 F2 C2 | F2 =C2 G2 | D2 B,2 D2 | G2 D2 G2 | D2 G2 D2 | G2 D2 F2 | D2 A,2 D2 | %101
 A,2 D2 F2 | D2 F2 D2 | B,2 D2 F2 | D2 F2 D2 | F2 D2 F2 | D2 F2 D2 | C2 F2 C2 | F2 A2 F2 | %109
 C2 F2 C2 | F2 G2 D2 | B,2 D2 A2 | E2 A2 E2 | A2 E2 A,2 | C2 F2 C2 | =C2 F2 C2 | F2 D2 G2 | %117
 D2 B,2 A2 | E2 A2 E2 | A2 E2 z2 | z6 | z2 z2 A2- ||[K:Eb] A2 B4 | b4 f2 | f2 g4- | g6- | g6 | %127
 B4 g2- | g4 f2 | a4 g2- | g2 f4- | f2 e4- | e2 e4 | d6 | c2 B4- | B4 e2- | e6- | e6- | e2 d4 | %139
 d6- | d2 d4 | e6- | e2 f4- | f4 d2 | d6 | ^c4 c2 | ^c2 z2 z2 | z6 | z6 | z6 | z6 | B4 c2- | %152
 c2 a4- | a6 | f6- | f2 g4- | g6- | g6- | g6 | z6 |] %160
V:4
 D,,6- | D,,6- | D,,6- | D,,6- | D,,6- | D,,6- | D,,6- | D,,6- | D,,6 | G,,6- | G,,6- | G,,6 | %12
 A,,6- | A,,6- | A,,6- | A,,6 | D,,6- | D,,6- | D,,6 | D,,6- | D,,6- | D,,6- | D,,6- | D,,6 | %24
 G,,6- | G,,6- | G,,6 | A,,6- | A,,6- | A,,6- | A,,6 | z2 D,,4- | D,,6- | D,,6- | D,,4 D,2- | D,6 | %36
 A,,6- | A,,6 | A,,4- [A,,B,,-]2 | B,,6- | B,,4 =C,-[A,,C,]- | [A,,C,]6- | [A,,C,]4 [G,,B,,]2- | %43
 [G,,B,,]6- | [G,,B,,]6- | [G,,B,,]6 | [G,,B,,]4 [F,,A,,]2- | [F,,A,,]6- | [F,,A,,]6- | [F,,A,,]6 | %50
 B,,6- | B,,6- | B,,6- | B,,6 | C,6- | C,6- | C,6- | C,2 [G,,B,,]4- | [G,,B,,]4 [A,,C,]2- | %59
 [A,,C,]6- | [A,,C,]4 C,2- | C,6 | =C,6- | C,2 [G,,B,,]4- | [G,,B,,]4 [A,,C,]2- | [A,,C,]6- | %66
 [A,,C,]4 D,2- | D,6- | D,4- [A,,D,]2 | [D,,D,]6- | [D,,D,]6- | [D,,D,]4 [D,,D,]2- | [D,,D,]6- | %73
 [D,,D,]6- | [D,,D,]2 [^A,,,^A,,-]4 | [^A,,,A,,]4 [A,,,^A,,]2- | [A,,,A,,]6- | [A,,,A,,]6- | %78
 [A,,,A,,]6- | [A,,,A,,]4 [G,,,G,,]2- | [G,,,G,,]6- | [G,,,G,,]6- | [G,,,G,,]2 [A,,,A,,]4- | %83
 [A,,,A,,]6- | [A,,,A,,]6- | [A,,,A,,]6- | [A,,,A,,]6- | [A,,,A,,]4 z2 | z4 A,,2- | A,,6- | A,,6 | %91
 A,,4- [A,,B,,-]2 | B,,6- | B,,4 =C,-[A,,C,]- | [A,,C,]6- | [A,,C,]4 [G,,B,,]2- | [G,,B,,]6- | %97
 [G,,B,,]6- | [G,,B,,]6 | [G,,B,,]4 [F,,A,,]2- | [F,,A,,]6- | [F,,A,,]6- | [F,,A,,]6 | B,,6- | %104
 B,,6- | B,,6- | B,,6 | C,6- | C,6- | C,6- | C,2 [G,,B,,]4- | [G,,B,,]4 [A,,C,]2- | [A,,C,]6- | %113
 [A,,C,]4 C,2- | C,6 | =C,6- | C,2 [G,,B,,]4- | [G,,B,,]4 [A,,C,]2- | [A,,C,]6- | [A,,C,]4 D2- | %120
 D6- | D4- [A,D]2- ||[K:Eb] [A,D]2 D4 | [D-B]4 [DF]2- | [D-F]6 | [D-G]4 D2- | D2 [D,G,B,]4- | %127
 [D,G,-B,]4 [G,C]2- | [G,-C]6 | [G,B,^C]6- | [G,B,C]2 [A,=C]4 | [A,C]6- | [A,C]6 | [G,B,]6- | %134
 [G,B,]6- | [G,B,]4 [E,G,C]2- | [E,G,C]6- | [E,G,C]6- | [E,G,C]2 [G,B,D]4 | [G,B,D]6- | [G,B,D]6 | %141
 [E,A,C]6- | [E,A,C]2 [F,B,D]4- | [F,B,D]4 D2- | D6 | ^C6 | ^C2 [A,=C]4- | [A,C]4 B,2- | B,6- | %149
 [E,G,B,]6- | [E,G,B,]6- | [E,G,B,]4 z2 | z6 | D,6- | D,6- | D,2- [D,B,]4- | B,6- | B,6- | B,6 | %159
 z6 |] %160
V:5
 x6 | x6 | x6 | x6 | x6 | x6 | x6 | x6 | x6 | G6- | G6 | x6 | x6 | x6 | x6 | x6 | x6 | x6 | x6 | %19
 x6 | x6 | x6 | x6 | x6 | G6- | G6 | x6 | x6 | x6 | x6 | x6 | x6 | x6 | x6 | x6 | x6 | x6 | x6 | %38
 x6 | x6 | x6 | x6 | x6 | x6 | x6 | x6 | x6 | x6 | x6 | x6 | x6 | x6 | x6 | x6 | x6 | x6 | x6 | %57
 x6 | x6 | x6 | x6 | x6 | x6 | x6 | x6 | x6 | x6 | x6 | x6 | x6 | x6 | x6 | x6 | x6 | x6 | x4 ^G2 | %76
 ^G2 x4 | x6 | x6 | x6 | x6 | x6 | G6- | x6 | x6 | x6 | x6 | x6 | x6 | x6 | x6 | x6 | x6 | x6 | %94
 x6 | x6 | x6 | x6 | x6 | x6 | x6 | x6 | x6 | x6 | x6 | x6 | x6 | x6 | x6 | x6 | x6 | x6 | x6 | %113
 x6 | x6 | x6 | x6 | x6 | x6 | x6 | x6 | x6 ||[K:Eb] x6 | x6 | x6 | x6 | x6 | x6 | x6 | x6 | x6 | %131
 x6 | x6 | x6 | x6 | x6 | x6 | x6 | x6 | x6 | x6 | x6 | x6 | x6 | x6 | x6 | x6 | x6 | x6 | x6 | %150
 x6 | x6 | x6 | x6 | x6 | x6 | x6 | x6 | x6 | x6 |] %160
V:6
 x6 | x6 | x6 | x6 | x6 | x6 | x6 | x6 | x6 | x6 | x6 | x6 | x6 | x6 | x6 | x6 | x6 | x6 | x6 | %19
 x6 | x6 | x6 | x6 | x6 | x6 | x6 | x6 | x6 | x6 | x6 | x6 | x6 | x6 | x6 | x6 | x6 | F,,6- | %37
 F,,6 | F,,4 F,,2- | F,,6- | F,,6- | F,,6- | F,,4 x2 | x6 | x6 | x6 | x6 | x6 | x6 | x6 | F,,6- | %51
 F,,6- | F,,6- | F,,6 | A,,6- | A,,6- | A,,6- | A,,4 x2 | x6 | x6 | x4 A,,2- | A,,6 | A,,6- | %63
 A,,2 x4 | x6 | x6 | x4 A,,2- | A,,6- | A,,4- x2 | x6 | x6 | x6 | x6 | x6 | x6 | x6 | x6 | %77
 [A,,,A,,]2 x4 | x6 | x6 | x6 | x6 | x6 | x6 | x6 | x6 | x6 | x6 | x4 F,,2- | F,,6- | F,,6 | %91
 F,,4 F,,2- | F,,6- | F,,6- | F,,6- | F,,4 z2 | x6 | x6 | x6 | x6 | x6 | x6 | x6 | F,,6- | F,,6- | %105
 F,,6- | F,,2 z2 z2 | A,,6- | A,,6- | A,,6- | A,,4 x2 | x6 | x6 | x4 A,,2- | A,,6 | A,,6- | %116
 A,,2 x4 | x6 | x6 | x4 A,2- | A,6- | A,4 x2 ||[K:Eb] x2 B,4 | x6 | x6 | x6 | x6 | x4 E,2- | E,6- | %129
 E,6- | E,6 | E,6- | E,6- | E,6- | E,6- | E,4 x2 | x6 | x6 | x6 | x6 | x6 | x6 | x6 | %143
 x4 [E,G,B,]2- | [E,G,B,]6- | [E,G,B,]6 | [E,-G,B,]2 E,4- | E,4 [F,D]2- | [F,D]6 | x6 | x6 | x6 | %152
 x6 | x6 | x6 | x6 | D,6- | D,6- | D,6 | x6 |] %160

